Origami/64x64/apps/chess.svg

<svg width="64" height="64" version="1.1" viewBox="0 0 64 64" xmlns="http://www.w3.org/2000/svg">
 <path d="m34.083698 5c-0.314496 0.1568024-0.674324 0.2744042-0.957682 0.4894474-0.54541 0.4186062-1.076654 0.865773-1.565396 1.3479402-0.536908 0.5289278-1.092234 0.8288124-1.875642 0.9898148-1.882724 0.3816458-2.994698 0.804172-4.754176 1.5422636-3.912782 1.646704-6.502414 4.748591-8.348306 8.479647-1.637645 3.316649-1.667395 6.911903-1.532814 10.523957 0.277663 7.452032 4.717012 12.892514 7.091314 18.627h0.614826c-0.926488 0-1.755822 0.62301-1.755822 1.39722v2.805364c0 0.77421 0.829334 1.79673 1.755822 1.79673h-1.31989c-1.211234 0-2.435932 0.935214-2.435932 2.097232v3.806152c0 1.162018 1.224698 2.097232 2.435932 2.097232h19.312068c1.211234 0 2.252-0.935214 2.252-2.097232v-3.806152c0-1.162018-1.040766-2.097232-2.252-2.097232h-1.319822c0.926488 0 1.571822-1.02252 1.571822-1.79673v-2.805364c0-0.77421-0.645334-1.39722-1.571822-1.39722h0.25783c0.600658-0.557208 0.57437-1.555424 1.109862-2.125232 2.426718-2.567638 2.860214-6.211894 1.155986-9.33254-0.832988-1.523222-2.004556-2.759442-3.356038-3.816458-1.52148-1.189736-3.09396-2.311154-4.628218-3.482972-0.439162-0.336004-0.38394-0.71646-0.9676-1.242868 1.446398 0.305204 2.157614 0.68286 3.322096 0.741662 2.010224 0.098 3.744202 0.965916 5.353514 2.136334 0.621908 0.452206 1.3444 0.814812 2.072556 1.066816 0.94632 0.324526 1.416648 0.0924 1.980474-0.763012 0.14874-0.226802 0.237998-0.485806 0.379662-0.782612 1.120568 0.028 1.73681-0.831514 2.044222-1.86753 0.10484-0.354206 0.28333-0.68181 0.412246-1.026216 0.871238-2.307234 0.423576-4.349864-1.245234-6.130692-0.372578-0.407406-0.815988-0.74621-1.205568-1.136816-1.300482-1.29922-2.60805-2.591439-3.875948-3.921459-0.920822-0.967415-1.749562-2.020231-2.678882-2.980085-0.46041-0.472927-0.848572-0.946414-1.062486-1.580624-0.322996-0.950334-0.929322-1.681985-1.811892-2.1764724-0.31308-0.1764026-1.411078-0.3794056-1.63774-0.5250078-0.36408-1.0606558 0.498658-2.3875958-0.963322-3.0542858z" style="opacity:.2"/>
 <path d="m34.083698 4c-0.314496 0.1568024-0.674324 0.2744042-0.957682 0.4894474-0.54541 0.4186062-1.076654 0.865773-1.565396 1.3479402-0.536908 0.5289278-1.092234 0.8288124-1.875642 0.9898148-1.882724 0.3816458-2.994698 0.804172-4.754176 1.5422632-3.912782 1.6467044-6.502414 4.7485914-8.348306 8.4796474-1.637645 3.316649-1.667395 6.911903-1.532814 10.523957 0.277663 7.452032 4.717012 12.892514 7.091314 18.627h0.614826c-0.926488 0-1.755822 0.62301-1.755822 1.39722v2.805364c0 0.77421 0.829334 1.79673 1.755822 1.79673h-1.31989c-1.211234 0-2.435932 0.935214-2.435932 2.097232v3.806152c0 1.162018 1.224698 2.097232 2.435932 2.097232h19.312068c1.211234 0 2.252-0.935214 2.252-2.097232v-3.806152c0-1.162018-1.040766-2.097232-2.252-2.097232h-1.319822c0.926488 0 1.571822-1.02252 1.571822-1.79673v-2.805364c0-0.77421-0.645334-1.39722-1.571822-1.39722h0.25783c0.600658-0.557208 0.57437-1.555424 1.109862-2.125232 2.426718-2.567638 2.860214-6.211894 1.155986-9.33254-0.832988-1.523222-2.004556-2.759442-3.356038-3.816458-1.52148-1.189736-3.09396-2.311154-4.628218-3.482972-0.439162-0.336004-0.38394-0.71646-0.9676-1.242868 1.446398 0.305204 2.157614 0.68286 3.322096 0.741662 2.010224 0.098 3.744202 0.965916 5.353514 2.136334 0.621908 0.452206 1.3444 0.814812 2.072556 1.066816 0.94632 0.324526 1.416648 0.0924 1.980474-0.763012 0.14874-0.226802 0.237998-0.485806 0.379662-0.782612 1.120568 0.028 1.73681-0.831514 2.044222-1.86753 0.10484-0.354206 0.28333-0.68181 0.412246-1.026216 0.871238-2.307234 0.423576-4.349864-1.245234-6.130691-0.372578-0.407406-0.815988-0.746212-1.205568-1.136817-1.300482-1.29922-2.60805-2.591439-3.875948-3.921459-0.920822-0.967415-1.749562-2.020231-2.678882-2.980085-0.46041-0.472927-0.848572-0.946414-1.062486-1.5806236-0.322996-0.9503344-0.929322-1.6819852-1.811892-2.1764728-0.31308-0.1764026-1.411078-0.3794056-1.63774-0.5250078-0.36408-1.0606558 0.498658-2.3875958-0.963322-3.0542858z" style="fill:#4f4f4f"/>
 <path d="m34.083984 4c-0.314496 0.1568024-0.673673 0.2751912-0.957031 0.4902344-0.54541 0.4186062-1.077664 0.865489-1.566406 1.3476562-0.536908 0.5289278-1.091592 0.829232-1.875 0.9902344-1.882724 0.3816458-2.994428 0.8029244-4.753906 1.5410156-3.912782 1.6467044-6.503718 4.7494124-8.34961 8.4804684-1.325037 2.68354-1.583928 5.551291-1.568359 8.460938 0.053585-2.565531 0.395253-5.085098 1.568359-7.460938 1.845892-3.731056 4.436828-6.833764 8.34961-8.4804684 1.759478-0.7380912 2.871182-1.1593698 4.753906-1.5410156 0.783408-0.1610024 1.338092-0.4613066 1.875-0.9902344 0.488742-0.4821672 1.020996-0.92905 1.566406-1.3476562 0.283358-0.2150432 0.642535-0.333432 0.957031-0.4902344 0.620774 0.2830841 0.812795 0.6884396 0.867188 1.1386719 0.030472-0.8244941 0.192928-1.6552396-0.867188-2.1386719zm0.882813 2.6757812c-0.018109 0.4626304-0.069936 0.9418783 0.080078 1.3789063 0.226662 0.1456022 1.325592 0.348988 1.638672 0.5253906 0.88257 0.4944876 1.487551 1.2254473 1.810547 2.1757809 0.213914 0.63421 0.60209 1.107151 1.0625 1.580079 0.92932 0.959853 1.758865 2.013053 2.679687 2.980468 1.267898 1.33002 2.574518 2.622655 3.875 3.921875 0.38958 0.390605 0.834454 0.729313 1.207031 1.136719 0.993349 1.060026 1.543001 2.214799 1.650391 3.460938 0.167248-1.635876-0.395834-3.122171-1.650391-4.460938-0.372577-0.407406-0.817451-0.746114-1.207031-1.136719-1.300482-1.29922-2.607102-2.591855-3.875-3.921875-0.920822-0.967415-1.750367-2.020615-2.679687-2.980468-0.46041-0.472928-0.848586-0.945869-1.0625-1.5800786-0.322996-0.9503344-0.927977-1.6812937-1.810547-2.1757813-0.31308-0.1764026-1.41201-0.3797884-1.638672-0.5253906-0.042251-0.1230867-0.06532-0.2500954-0.080078-0.3789063zm-1.966797 20.324219c0.58366 0.526408 0.527635 0.906183 0.966797 1.242188 1.534258 1.171817 3.107426 2.294639 4.628906 3.484374 1.351482 1.057017 2.522481 2.293185 3.355469 3.816407 0.593565 1.086889 0.911154 2.236498 0.992187 3.382812 0.085797-1.470665-0.225211-2.978387-0.992187-4.382812-0.832988-1.523222-2.003987-2.759391-3.355469-3.816407-1.52148-1.189735-3.094648-2.312557-4.628906-3.484374-0.003326-0.002545-0.004543-0.005263-0.007813-0.007813-0.286822-0.078772-0.599625-0.158547-0.958984-0.234375zm7.177734 19.164062c-0.116205 0.310801-0.250192 0.611448-0.492187 0.835938h-0.257813c0.926488 0 1.572266 0.622274 1.572266 1.396484v-1c0-0.53967-0.318487-0.999485-0.822266-1.232422zm-18.384765 0.074219c-0.469163 0.250569-0.792969 0.674322-0.792969 1.158203v1c0-0.77421 0.829371-1.396484 1.755859-1.396484h-0.615234c-0.105653-0.255177-0.234373-0.507503-0.347656-0.761719zm19.001953 5.765625c-0.258943 0.535319-0.746874 0.996094-1.367188 0.996094h1.320313c1.211234 0 2.251953 0.933685 2.251953 2.095703v-1c0-1.14674-1.014341-2.06765-2.205078-2.091797zm-19.53711 0.011719c-1.150013 0.085914-2.257812 0.975265-2.257812 2.080078v1c0-1.162018 1.224313-2.095703 2.435547-2.095703h1.320312c-0.615889 0-1.183105-0.453984-1.498047-0.984375z" style="fill:#ffffff;opacity:.1"/>
</svg>

<svg xmlns="http://www.w3.org/2000/svg" width="64" height="64" version="1.1" viewBox="0 0 64 64">
 <path style="opacity:0.2" d="M 34.083698,5 C 33.769202,5.1568024 33.409374,5.2744042 33.126016,5.4894474 32.580606,5.9080536 32.049362,6.3552204 31.56062,6.8373876 31.023712,7.3663154 30.468386,7.6662 29.684978,7.8272024 27.802254,8.2088482 26.69028,8.6313744 24.930802,9.369466 c -3.912782,1.646704 -6.502414,4.748591 -8.348306,8.479647 -1.637645,3.316649 -1.667395,6.911903 -1.532814,10.523957 0.277663,7.452032 4.717012,12.892514 7.091314,18.627 l 0.614826,0 C 21.829334,47.00007 21,47.62308 21,48.39729 l 0,2.805364 c 0,0.77421 0.829334,1.79673 1.755822,1.79673 l -1.31989,0 C 20.224698,52.999384 19,53.934598 19,55.096616 l 0,3.806152 C 19,60.064786 20.224698,61 21.435932,61 L 40.748,61 C 41.959234,61 43,60.064786 43,58.902768 l 0,-3.806152 c 0,-1.162018 -1.040766,-2.097232 -2.252,-2.097232 l -1.319822,0 C 40.354666,52.999384 41,51.976864 41,51.202654 l 0,-2.805364 c 0,-0.77421 -0.645334,-1.39722 -1.571822,-1.39722 l 0.25783,0 c 0.600658,-0.557208 0.57437,-1.555424 1.109862,-2.125232 2.426718,-2.567638 2.860214,-6.211894 1.155986,-9.33254 C 41.118868,34.019076 39.9473,32.782856 38.595818,31.72584 37.074338,30.536104 35.501858,29.414686 33.9676,28.242868 33.528438,27.906864 33.58366,27.526408 33,27 c 1.446398,0.305204 2.157614,0.68286 3.322096,0.741662 2.010224,0.098 3.744202,0.965916 5.353514,2.136334 0.621908,0.452206 1.3444,0.814812 2.072556,1.066816 0.94632,0.324526 1.416648,0.0924 1.980474,-0.763012 0.14874,-0.226802 0.237998,-0.485806 0.379662,-0.782612 1.120568,0.028 1.73681,-0.831514 2.044222,-1.86753 0.10484,-0.354206 0.28333,-0.68181 0.412246,-1.026216 0.871238,-2.307234 0.423576,-4.349864 -1.245234,-6.130692 -0.372578,-0.407406 -0.815988,-0.74621 -1.205568,-1.136816 -1.300482,-1.29922 -2.60805,-2.591439 -3.875948,-3.921459 C 41.317198,14.34906 40.488458,13.296244 39.559138,12.33639 39.098728,11.863463 38.710566,11.389976 38.496652,10.755766 38.173656,9.805432 37.56733,9.073781 36.68476,8.5792936 36.37168,8.402891 35.273682,8.199888 35.04702,8.0542858 34.68294,6.99363 35.545678,5.66669 34.083698,5 Z"/>
 <path style="fill:#4f4f4f" d="M 34.083698,4 C 33.769202,4.1568024 33.409374,4.2744042 33.126016,4.4894474 32.580606,4.9080536 32.049362,5.3552204 31.56062,5.8373876 31.023712,6.3663154 30.468386,6.6662 29.684978,6.8272024 27.802254,7.2088482 26.69028,7.6313744 24.930802,8.3694656 21.01802,10.01617 18.428388,13.118057 16.582496,16.849113 c -1.637645,3.316649 -1.667395,6.911903 -1.532814,10.523957 0.277663,7.452032 4.717012,12.892514 7.091314,18.627 l 0.614826,0 C 21.829334,46.00007 21,46.62308 21,47.39729 l 0,2.805364 c 0,0.77421 0.829334,1.79673 1.755822,1.79673 l -1.31989,0 C 20.224698,51.999384 19,52.934598 19,54.096616 l 0,3.806152 C 19,59.064786 20.224698,60 21.435932,60 L 40.748,60 C 41.959234,60 43,59.064786 43,57.902768 l 0,-3.806152 c 0,-1.162018 -1.040766,-2.097232 -2.252,-2.097232 l -1.319822,0 C 40.354666,51.999384 41,50.976864 41,50.202654 l 0,-2.805364 c 0,-0.77421 -0.645334,-1.39722 -1.571822,-1.39722 l 0.25783,0 c 0.600658,-0.557208 0.57437,-1.555424 1.109862,-2.125232 2.426718,-2.567638 2.860214,-6.211894 1.155986,-9.33254 C 41.118868,33.019076 39.9473,31.782856 38.595818,30.72584 37.074338,29.536104 35.501858,28.414686 33.9676,27.242868 33.528438,26.906864 33.58366,26.526408 33,26 c 1.446398,0.305204 2.157614,0.68286 3.322096,0.741662 2.010224,0.098 3.744202,0.965916 5.353514,2.136334 0.621908,0.452206 1.3444,0.814812 2.072556,1.066816 0.94632,0.324526 1.416648,0.0924 1.980474,-0.763012 0.14874,-0.226802 0.237998,-0.485806 0.379662,-0.782612 1.120568,0.028 1.73681,-0.831514 2.044222,-1.86753 0.10484,-0.354206 0.28333,-0.68181 0.412246,-1.026216 0.871238,-2.307234 0.423576,-4.349864 -1.245234,-6.130691 -0.372578,-0.407406 -0.815988,-0.746212 -1.205568,-1.136817 -1.300482,-1.29922 -2.60805,-2.591439 -3.875948,-3.921459 C 41.317198,13.34906 40.488458,12.296244 39.559138,11.33639 39.098728,10.863463 38.710566,10.389976 38.496652,9.7557664 38.173656,8.805432 37.56733,8.0737812 36.68476,7.5792936 36.37168,7.402891 35.273682,7.199888 35.04702,7.0542858 34.68294,5.99363 35.545678,4.66669 34.083698,4 Z"/>
 <path style="fill:#ffffff;opacity:0.1" d="M 34.083984 4 C 33.769488 4.1568024 33.410311 4.2751912 33.126953 4.4902344 C 32.581543 4.9088406 32.049289 5.3557234 31.560547 5.8378906 C 31.023639 6.3668184 30.468955 6.6671226 29.685547 6.828125 C 27.802823 7.2097708 26.691119 7.6310494 24.931641 8.3691406 C 21.018859 10.015845 18.427923 13.118553 16.582031 16.849609 C 15.256994 19.533149 14.998103 22.4009 15.013672 25.310547 C 15.067257 22.745016 15.408925 20.225449 16.582031 17.849609 C 18.427923 14.118553 21.018859 11.015845 24.931641 9.3691406 C 26.691119 8.6310494 27.802823 8.2097708 29.685547 7.828125 C 30.468955 7.6671226 31.023639 7.3668184 31.560547 6.8378906 C 32.049289 6.3557234 32.581543 5.9088406 33.126953 5.4902344 C 33.410311 5.2751912 33.769488 5.1568024 34.083984 5 C 34.704758 5.2830841 34.896779 5.6884396 34.951172 6.1386719 C 34.981644 5.3141778 35.1441 4.4834323 34.083984 4 z M 34.966797 6.6757812 C 34.948688 7.1384116 34.896861 7.6176595 35.046875 8.0546875 C 35.273537 8.2002897 36.372467 8.4036755 36.685547 8.5800781 C 37.568117 9.0745657 38.173098 9.8055254 38.496094 10.755859 C 38.710008 11.390069 39.098184 11.86301 39.558594 12.335938 C 40.487914 13.295791 41.317459 14.348991 42.238281 15.316406 C 43.506179 16.646426 44.812799 17.939061 46.113281 19.238281 C 46.502861 19.628886 46.947735 19.967594 47.320312 20.375 C 48.313661 21.435026 48.863313 22.589799 48.970703 23.835938 C 49.137951 22.200062 48.574869 20.713767 47.320312 19.375 C 46.947735 18.967594 46.502861 18.628886 46.113281 18.238281 C 44.812799 16.939061 43.506179 15.646426 42.238281 14.316406 C 41.317459 13.348991 40.487914 12.295791 39.558594 11.335938 C 39.098184 10.86301 38.710008 10.390069 38.496094 9.7558594 C 38.173098 8.805525 37.568117 8.0745657 36.685547 7.5800781 C 36.372467 7.4036755 35.273537 7.2002897 35.046875 7.0546875 C 35.004624 6.9316008 34.981555 6.8045921 34.966797 6.6757812 z M 33 27 C 33.58366 27.526408 33.527635 27.906183 33.966797 28.242188 C 35.501055 29.414005 37.074223 30.536827 38.595703 31.726562 C 39.947185 32.783579 41.118184 34.019747 41.951172 35.542969 C 42.544737 36.629858 42.862326 37.779467 42.943359 38.925781 C 43.029156 37.455116 42.718148 35.947394 41.951172 34.542969 C 41.118184 33.019747 39.947185 31.783578 38.595703 30.726562 C 37.074223 29.536827 35.501055 28.414005 33.966797 27.242188 C 33.963471 27.239643 33.962254 27.236925 33.958984 27.234375 C 33.672162 27.155603 33.359359 27.075828 33 27 z M 40.177734 46.164062 C 40.061529 46.474863 39.927542 46.77551 39.685547 47 L 39.427734 47 C 40.354222 47 41 47.622274 41 48.396484 L 41 47.396484 C 41 46.856814 40.681513 46.396999 40.177734 46.164062 z M 21.792969 46.238281 C 21.323806 46.48885 21 46.912603 21 47.396484 L 21 48.396484 C 21 47.622274 21.829371 47 22.755859 47 L 22.140625 47 C 22.034972 46.744823 21.906252 46.492497 21.792969 46.238281 z M 40.794922 52.003906 C 40.535979 52.539225 40.048048 53 39.427734 53 L 40.748047 53 C 41.959281 53 43 53.933685 43 55.095703 L 43 54.095703 C 43 52.948963 41.985659 52.028053 40.794922 52.003906 z M 21.257812 52.015625 C 20.107799 52.101539 19 52.99089 19 54.095703 L 19 55.095703 C 19 53.933685 20.224313 53 21.435547 53 L 22.755859 53 C 22.13997 53 21.572754 52.546016 21.257812 52.015625 z"/>
</svg>
